storage/app/icons/phosphoricons/light/cell-signal-full-light.svg

<svg xmlns="http://www.w3.org/2000/svg" fill="currentColor" viewBox="0 0 256 256"><path d="M166 72v128a6 6 0 0 1-12 0V72a6 6 0 0 1 12 0m34-46a6 6 0 0 0-6 6v168a6 6 0 0 0 12 0V32a6 6 0 0 0-6-6m-80 80a6 6 0 0 0-6 6v88a6 6 0 0 0 12 0v-88a6 6 0 0 0-6-6m-40 40a6 6 0 0 0-6 6v48a6 6 0 0 0 12 0v-48a6 6 0 0 0-6-6m-40 40a6 6 0 0 0-6 6v8a6 6 0 0 0 12 0v-8a6 6 0 0 0-6-6"/></svg>

<svg xmlns="http://www.w3.org/2000/svg" viewBox="0 0 256 256" fill="currentColor"><path d="M166,72V200a6,6,0,0,1-12,0V72a6,6,0,0,1,12,0Zm34-46a6,6,0,0,0-6,6V200a6,6,0,0,0,12,0V32A6,6,0,0,0,200,26Zm-80,80a6,6,0,0,0-6,6v88a6,6,0,0,0,12,0V112A6,6,0,0,0,120,106ZM80,146a6,6,0,0,0-6,6v48a6,6,0,0,0,12,0V152A6,6,0,0,0,80,146ZM40,186a6,6,0,0,0-6,6v8a6,6,0,0,0,12,0v-8A6,6,0,0,0,40,186Z"/></svg>
